X: 1
T: Comeback Jig
T: 8x32J 3C
P: We're No Very Fou, But We're Gaily Yet
C: for Comeback Jig
C: a.k.a. The Laird of Skene's Favourite
C: from Hamilton's Universal Tunebook, arr. T. Traub 8-4-2017
R: jig
M: 6/8
L: 1/8
K: Dm
|: c|"Dm"A2 d d>ef|"F"A2 c c2 B|"Dm"A2 d d>ef|"Dm"A2 d d2 c|"Dm"A2 f f>ga|"Am"A2 c c2 B|"A7"A2 G F2 G|"Dm"A2 d d2 :|
|: B|"F"A>GF F2 G|"F"A2 c "C7"BAG|"F"A>GF F2 G|"Dm"A2 d d2 B|"F"A>GF F2 G|"F"A2 c "C7"BAG|"Dm"A2 d def|"Dm"A2 d d2 :|

